X:1
T:O Jesu Christ, Dein Kripplein
T:Johann Crüger, 1653
T:O Jesu Christ, Dein Kripplein
T:Public Domain
C:Johann Cr&#252;ger, 1653
Z:Public Domain
%%score ( 1 2 ) ( 3 4 )
L:1/8
M:none
K:Eb
V:1 treble 
V:2 treble 
V:3 bass 
V:4 bass 
V:1
 [EG]4 [CE]2 [CE]2 | [DF]6 [EG]2 | [EA]2 [EA]2 [EG]4 | [EB]4 [Ec]2 [DB]2 | %4
 [EG]2 [B,F]2 [B,G]2 [EB]2 | [FA]2 [EG]2 (E2 D2) | E8 | [EB]4 [Ec]2 [Fd]2 | [Ge]6 [FB]2 | %9
 [EG]2 [E=A]2 [DB]4 | E4 [EA]2 [EG]2 | [DF]2 [EB]2 [Ec]2 [DB]2 | [CA]2 [EG]2 (E2 D2) | E8 |] %14
V:2
 x8 | x8 | x8 | x8 | x8 | x4 F4 | E8 | x8 | x8 | x8 | E4 x4 | x8 | x4 F4 | E8 |] %14
V:3
 [E,B,]4 [A,,A,]2 [C,G,]2 | [B,,B,]6 [E,B,]2 | [C,C]2 [A,,C]2 [E,B,]4 | [E,G,]4 [A,,A,]2 [B,,F,]2 | %4
 [C,E,]2 [D,F,]2 E,2 [G,,B,]2 | [A,,C]2 [E,B,]2 [B,,B,]4 | [E,,G,]8 | [E,G,]4 [C,G,]2 [B,,B,]2 | %8
 [E,B,]6 [D,B,]2 | [E,B,]2 [C,E,]2 [B,,F,]4 | [G,,B,]4 [A,,C]2 [E,B,]2 | %11
 [B,,B,]2 [G,,B,]2 [A,,A,]2 [B,,F,]2 | [F,,F,]2 [G,,B,]2 [B,,B,]4 | [E,,G,]8 |] %14
V:4
 x8 | x8 | x8 | x8 | x4 E,2 x2 | x8 | x8 | x8 | x8 | x8 | x8 | x8 | x8 | x8 |] %14

